X:6064
T:Garcons de la montagne
R:Bourr\'ee
O:France
M:3/4
K:G
d3ed2|c2ABc2|BAG2A2|B2A4|\
d3ed2|c2ABc2|BAG2F2|1 G3A Bc:|2 G6||
|:d2G2A2|B2ABc2|BAG2A2|B2A4|\
D2G2A2|B2ABc2|BAG2F2|G6:|
